website/static/logo.svg

<svg width="65" height="67" viewBox="0 0 65 67" fill="none" xmlns="http://www.w3.org/2000/svg">
<path d="M64.8818 0L33.9038 15.143V29.927L64.8818 14.783V0Z" fill="#E2665C"/>
<path d="M64.8818 33.366L33.9038 48.508V33.724L64.8818 18.583V33.366Z" fill="#E2665C"/>
<path d="M33.9038 52.217V67L49.3918 44.645L33.9038 52.217Z" fill="#E2665C"/>
<path d="M0 0V14.783L30.978 29.927V15.143L0 0Z" fill="#E2665C"/>
<path d="M0 33.365L30.978 48.508V33.724L0 18.582V33.365Z" fill="#E2665C"/>
<path d="M30.9788 67V52.217L15.4888 44.645L30.9788 67Z" fill="#E2665C"/>
</svg>

<svg width="250" height="67"><defs><clipPath id="a"><path data-name="Rectangle 5" fill="#fff" d="M0 0h172.697v23.383H0z"/></clipPath></defs><g data-name="Group 7"><g data-name="Group 3" fill="#fff"><path data-name="Path 5" d="M64.882 0L33.904 15.143v14.784l30.978-15.144z"/><path data-name="Path 6" d="M64.882 33.366L33.904 48.508V33.724l30.978-15.141z"/><path data-name="Path 7" d="M33.904 52.217V67l15.488-22.355z"/><path data-name="Path 8" d="M0 0v14.783l30.978 15.144V15.143z"/><path data-name="Path 9" d="M0 33.365l30.978 15.143V33.724L0 18.582z"/><path data-name="Path 10" d="M30.979 67V52.217l-15.49-7.572z"/></g><g data-name="Group 6"><path data-name="Path 11" d="M77.352 23.291v22.512h4.22v-9.17h8.422v-3.347h-8.422v-6.663h9.979v-3.332z" fill="#fff"/><path data-name="Rectangle 3" fill="#fff" d="M94.928 22.668h3.846v23.135h-3.846z"/><g data-name="Group 5"><g data-name="Group 4" transform="translate(77.304 22.669)" clip-path="url(#a)" fill="#fff"><path data-name="Path 12" d="M38.392 23.135h-1.727a1.866 1.866 0 01-.858-.163 1.049 1.049 0 01-.466-.662l-.344-1.136a13.188 13.188 0 01-1.19.958 7.239 7.239 0 01-1.207.692 6.176 6.176 0 01-1.324.421 7.953 7.953 0 01-1.557.139 6.136 6.136 0 01-1.868-.273 4.037 4.037 0 01-1.471-.82 3.728 3.728 0 01-.957-1.359 4.823 4.823 0 01-.342-1.89 3.726 3.726 0 01.474-1.788 4.485 4.485 0 011.58-1.594 10.11 10.11 0 012.942-1.179 18.812 18.812 0 014.562-.469v-.941a3.565 3.565 0 00-.678-2.392 2.471 2.471 0 00-1.97-.776 4.738 4.738 0 00-1.556.218 6 6 0 00-1.082.49q-.459.272-.849.49a1.722 1.722 0 01-.855.218 1.106 1.106 0 01-.669-.2 1.586 1.586 0 01-.453-.5l-.7-1.231a9.5 9.5 0 016.648-2.522 6.425 6.425 0 012.5.46 5.306 5.306 0 011.861 1.279 5.447 5.447 0 011.159 1.954 7.481 7.481 0 01.4 2.49zm-7.472-2.4a5.164 5.164 0 001.09-.107 4.179 4.179 0 00.939-.323 5.058 5.058 0 00.858-.529 7.91 7.91 0 00.833-.744v-2.669a15.574 15.574 0 00-2.81.211 7.416 7.416 0 00-1.814.54 2.348 2.348 0 00-.973.769 1.709 1.709 0 00-.288.956 1.687 1.687 0 00.6 1.458 2.585 2.585 0 001.565.439"/><path data-name="Path 13" d="M42.238 23.135V7.162h2.257a1.21 1.21 0 01.825.218 1.253 1.253 0 01.311.747l.234 1.93a7.579 7.579 0 012.008-2.335 4.226 4.226 0 012.584-.856 3.342 3.342 0 011.962.545l-.5 2.88a.6.6 0 01-.2.4.69.69 0 01-.42.116 2.621 2.621 0 01-.639-.109 4.276 4.276 0 00-1.074-.109 3.258 3.258 0 00-2.054.662 5.092 5.092 0 00-1.449 1.938v9.946z"/><path data-name="Path 14" d="M61.62 6.912a7.757 7.757 0 012.779.483 6.087 6.087 0 012.188 1.409 6.421 6.421 0 011.432 2.272 8.569 8.569 0 01.514 3.075 5.54 5.54 0 01-.039.724 1.162 1.162 0 01-.14.452.56.56 0 01-.273.233 1.143 1.143 0 01-.436.07h-9.867a5.5 5.5 0 001.323 3.612 4.126 4.126 0 003.052 1.152 5.279 5.279 0 001.611-.218 7.5 7.5 0 001.184-.483q.5-.265.887-.483a1.488 1.488 0 01.739-.218.834.834 0 01.406.093.9.9 0 01.3.265l1.12 1.4a6.425 6.425 0 01-1.432 1.254 7.977 7.977 0 01-1.658.809 9.01 9.01 0 01-1.759.428 12.593 12.593 0 01-1.736.125 8.529 8.529 0 01-3.1-.553 6.935 6.935 0 01-2.492-1.635 7.658 7.658 0 01-1.665-2.677 10.351 10.351 0 01-.607-3.7 8.83 8.83 0 01.529-3.075 7.381 7.381 0 011.518-2.506 7.151 7.151 0 012.414-1.689 7.947 7.947 0 013.214-.623m.078 2.756a3.559 3.559 0 00-2.631.95 4.687 4.687 0 00-1.214 2.693h7.219a4.785 4.785 0 00-.2-1.409 3.229 3.229 0 00-.623-1.16 2.929 2.929 0 00-1.058-.786 3.608 3.608 0 00-1.495-.288"/><path data-name="Path 15" d="M86.139 1.105v1.323h-11.6v9.263H84.58v1.323H74.54v10.12h-1.6V1.105z"/><path data-name="Path 16" d="M92.632 2.305a1.183 1.183 0 01-.117.522 1.575 1.575 0 01-.3.428 1.408 1.408 0 01-.436.3 1.338 1.338 0 01-1.058 0 1.4 1.4 0 01-.436-.3 1.447 1.447 0 01-.3-.428 1.265 1.265 0 01-.108-.522 1.4 1.4 0 01.4-.981 1.4 1.4 0 01.436-.3 1.338 1.338 0 011.058 0 1.408 1.408 0 01.436.3 1.489 1.489 0 01.3.444 1.28 1.28 0 01.117.537m-.654 20.83h-1.479V7.644h1.479z"/><path data-name="Path 17" d="M97.519 23.134V7.644h.81a.422.422 0 01.467.389l.14 2.335a8.682 8.682 0 012.467-2.157 6.146 6.146 0 013.137-.817 5.821 5.821 0 012.249.4 4.145 4.145 0 011.612 1.168 5.156 5.156 0 01.964 1.837 8.334 8.334 0 01.328 2.429v9.9h-1.479v-9.9a5.309 5.309 0 00-1-3.418 3.686 3.686 0 00-3.051-1.237 5.4 5.4 0 00-2.833.787 8.24 8.24 0 00-2.335 2.156v11.618z"/><path data-name="Path 18" d="M124.312 23.134a.533.533 0 01-.576-.436l-.218-1.977a15.971 15.971 0 01-1.269 1.121 7.58 7.58 0 01-1.315.841 6.468 6.468 0 01-1.479.522 7.977 7.977 0 01-1.744.179 5.136 5.136 0 01-1.541-.233 3.8 3.8 0 01-1.323-.717 3.5 3.5 0 01-.926-1.237 4.27 4.27 0 01-.351-1.813 3.218 3.218 0 01.56-1.821 4.609 4.609 0 011.751-1.464 11.6 11.6 0 013.068-1 26.667 26.667 0 014.507-.436v-1.617a5.187 5.187 0 00-.927-3.308 3.3 3.3 0 00-2.747-1.159 5.185 5.185 0 00-1.907.311 6.8 6.8 0 00-1.331.685 8.5 8.5 0 00-.887.685.961.961 0 01-.576.311.5.5 0 01-.467-.28l-.265-.451a9.006 9.006 0 012.553-1.838 7.128 7.128 0 013.036-.623 5.552 5.552 0 012.18.4 4.029 4.029 0 011.549 1.137 4.963 4.963 0 01.927 1.79 8.235 8.235 0 01.311 2.343v10.085zm-6.227-.825a6.594 6.594 0 001.658-.195 6.148 6.148 0 001.4-.544 6.868 6.868 0 001.206-.833q.56-.483 1.105-1.042v-4.034a27.856 27.856 0 00-3.807.334 11 11 0 00-2.63.74 3.854 3.854 0 00-1.526 1.113A2.368 2.368 0 00115 19.32a3.26 3.26 0 00.257 1.346 2.6 2.6 0 001.658 1.472 3.973 3.973 0 001.168.171"/><path data-name="Path 19" d="M129.636 23.134V7.644h.81a.422.422 0 01.467.389l.14 2.335a8.682 8.682 0 012.467-2.157 6.146 6.146 0 013.137-.817 5.821 5.821 0 012.249.4 4.145 4.145 0 011.612 1.168 5.155 5.155 0 01.964 1.837 8.333 8.333 0 01.328 2.429v9.9h-1.479v-9.9a5.309 5.309 0 00-1-3.418 3.686 3.686 0 00-3.051-1.237 5.4 5.4 0 00-2.833.787 8.239 8.239 0 00-2.335 2.156v11.618z"/><path data-name="Path 20" d="M156.739 9.72a1.714 1.714 0 01-.148.132.306.306 0 01-.194.055.812.812 0 01-.428-.211 5.652 5.652 0 00-.724-.459 6.1 6.1 0 00-1.128-.46 6.3 6.3 0 00-4.017.265 4.725 4.725 0 00-1.744 1.363 6.249 6.249 0 00-1.084 2.143 9.994 9.994 0 00-.373 2.834 10.018 10.018 0 00.381 2.9 6.153 6.153 0 001.082 2.125 4.6 4.6 0 001.7 1.315 5.284 5.284 0 002.21.448 5.707 5.707 0 001.876-.265 6.124 6.124 0 001.246-.575 5.648 5.648 0 00.778-.576.8.8 0 01.46-.265.358.358 0 01.311.156l.4.5a4.506 4.506 0 01-.9.873 6.092 6.092 0 01-1.231.7 7.5 7.5 0 01-1.486.46 8.369 8.369 0 01-1.674.164 6.643 6.643 0 01-2.7-.537 5.862 5.862 0 01-2.1-1.557 7.269 7.269 0 01-1.369-2.5 10.642 10.642 0 01-.492-3.363 10.621 10.621 0 01.467-3.239 7.314 7.314 0 011.363-2.521 6.114 6.114 0 012.2-1.643 7.21 7.21 0 012.982-.584 7.04 7.04 0 012.686.483 6.613 6.613 0 012.046 1.308z"/><path data-name="Path 21" d="M166.608 7.395a6.381 6.381 0 012.421.451 5.448 5.448 0 011.93 1.316 6.076 6.076 0 011.277 2.125 8.438 8.438 0 01.46 2.9.772.772 0 01-.1.467.387.387 0 01-.319.125h-11.179v.3a10.5 10.5 0 00.4 3.067 6.287 6.287 0 001.153 2.219 4.757 4.757 0 001.805 1.347 5.976 5.976 0 002.367.451 7.05 7.05 0 002.023-.257 7.5 7.5 0 001.44-.575 7.964 7.964 0 00.927-.576 1.048 1.048 0 01.5-.257.357.357 0 01.311.156l.4.5a4.224 4.224 0 01-.988.873 7.076 7.076 0 01-1.37.692 9.982 9.982 0 01-1.619.459 8.856 8.856 0 01-1.736.172 7.369 7.369 0 01-2.9-.553 6.151 6.151 0 01-2.244-1.612 7.363 7.363 0 01-1.448-2.592 11.1 11.1 0 01-.512-3.511 9.571 9.571 0 01.475-3.074 7.032 7.032 0 011.37-2.429 6.245 6.245 0 012.2-1.6 7.22 7.22 0 012.951-.576m.022 1.105a5.816 5.816 0 00-2.145.374 4.694 4.694 0 00-1.639 1.074 5.47 5.47 0 00-1.119 1.682 7.648 7.648 0 00-.568 2.2h10.2a6.8 6.8 0 00-.342-2.234 4.787 4.787 0 00-.964-1.674 4.169 4.169 0 00-1.492-1.05 4.929 4.929 0 00-1.927-.366"/><path data-name="Path 22" d="M14.2.623v3.331H4.218v6.663h8.422v3.347H4.218v9.17H0V.623z"/><path data-name="Rectangle 4" d="M17.576.623h3.845v22.512h-3.845z"/><path data-name="Path 23" d="M38.343 22.885h-1.727a1.86 1.86 0 01-.856-.163 1.05 1.05 0 01-.467-.662l-.342-1.136a13.3 13.3 0 01-1.191.958 7.24 7.24 0 01-1.207.692 6.175 6.175 0 01-1.324.421 7.956 7.956 0 01-1.556.139 6.141 6.141 0 01-1.869-.273 4.037 4.037 0 01-1.471-.82 3.728 3.728 0 01-.957-1.359 4.823 4.823 0 01-.342-1.89 3.734 3.734 0 01.474-1.788 4.479 4.479 0 011.58-1.594 10.119 10.119 0 012.942-1.179 18.817 18.817 0 014.562-.469v-.941a3.569 3.569 0 00-.678-2.392 2.471 2.471 0 00-1.97-.776 4.738 4.738 0 00-1.556.218 6 6 0 00-1.082.49q-.459.272-.849.49a1.718 1.718 0 01-.856.218 1.11 1.11 0 01-.669-.2 1.593 1.593 0 01-.452-.5l-.7-1.231a9.5 9.5 0 016.648-2.522 6.423 6.423 0 012.5.46 5.3 5.3 0 011.86 1.277 5.449 5.449 0 011.16 1.954 7.5 7.5 0 01.4 2.49zm-7.472-2.4a5.164 5.164 0 001.09-.107 4.2 4.2 0 00.941-.321 5.081 5.081 0 00.857-.529 7.835 7.835 0 00.833-.744v-2.671a15.56 15.56 0 00-2.81.211 7.423 7.423 0 00-1.815.54 2.343 2.343 0 00-.973.769 1.709 1.709 0 00-.288.956 1.687 1.687 0 00.6 1.458 2.585 2.585 0 001.565.439"/><path data-name="Path 24" d="M42.189 23.135V7.162h2.257a1.21 1.21 0 01.825.218 1.253 1.253 0 01.311.747l.234 1.93a7.569 7.569 0 012.008-2.335 4.222 4.222 0 012.584-.856 3.34 3.34 0 011.962.545l-.5 2.88a.6.6 0 01-.2.4.689.689 0 01-.42.116 2.632 2.632 0 01-.639-.109 4.272 4.272 0 00-1.074-.109 3.258 3.258 0 00-2.054.662 5.092 5.092 0 00-1.449 1.938v9.946z"/><path data-name="Path 25" d="M61.571 6.679a7.761 7.761 0 012.779.483 6.091 6.091 0 012.187 1.408 6.433 6.433 0 011.432 2.272 8.586 8.586 0 01.514 3.075 5.542 5.542 0 01-.039.724 1.163 1.163 0 01-.139.452.566.566 0 01-.273.233 1.146 1.146 0 01-.436.07h-9.87a5.5 5.5 0 001.323 3.612A4.124 4.124 0 0062.1 20.16a5.279 5.279 0 001.611-.218 7.464 7.464 0 001.184-.482q.5-.265.887-.483a1.49 1.49 0 01.74-.218.833.833 0 01.4.093.9.9 0 01.3.265l1.121 1.4a6.43 6.43 0 01-1.432 1.253 7.976 7.976 0 01-1.658.809 9 9 0 01-1.759.428 12.582 12.582 0 01-1.735.125 8.53 8.53 0 01-3.1-.553 6.926 6.926 0 01-2.491-1.635 7.659 7.659 0 01-1.665-2.674 10.367 10.367 0 01-.607-3.7 8.847 8.847 0 01.529-3.075 7.371 7.371 0 011.518-2.506A7.141 7.141 0 0158.356 7.3a7.946 7.946 0 013.214-.623m.078 2.756a3.559 3.559 0 00-2.631.95 4.686 4.686 0 00-1.214 2.693h7.224a4.786 4.786 0 00-.202-1.406 3.252 3.252 0 00-.623-1.16 2.938 2.938 0 00-1.059-.786 3.608 3.608 0 00-1.495-.288"/></g></g></g></g></svg>
